X:1
T:Rejoice Today
T:Frank Treat Southwick
T:Rejoice Today
T:Public Domain
T:Public Domain
C:Frank Treat Southwick
Z:Public Domain
%%score ( 1 2 ) ( 3 4 )
L:1/8
M:4/4
K:D
V:1 treble 
V:2 treble 
V:3 bass 
V:4 bass 
V:1
 [Fd]2"^Alla Breve" | [Ec]3 [EB] [CG]2 [Gc]2 | [FB]2 [FA]2 [DF]2 [DB]2 | [EA]3 [EG] [CF]2 [CG]2 | %4
w: 1.~Re-|joice to- day with|glad ac- cord, For|Christ, the Lord, is|
w: 2.~Be-|hold Him in a|man- ger laid: A|help- less lit- tle|
w: 3.~The|King of Heav’n— the|Prince of Life, As-|sumes a mor- tal|
w: 4.~Hail,|glor- ious Prince! Hail,|bless- èd Son! On|this Thy na- tal|
 ([DB]4 [DA]2) [Fd]2 | [Fe]2 [Fd]2 [Ec]2 [FB]2 | [EB]3 [EA] [Ec]2 [Gc]2 | [FB]2 (cd) [^Gc]2 [GB]2 | %8
w: come: * Ful-|fill- èd the pro-|phe- tic word, In|Da- vid’s * Beth- le-|
w: one; * For|whom Ju- de- a’s|mo- thers prayed; The|long ex- * pec- ted|
w: frame; * He|comes to en- ter|in- to strife, To|weave im- * mor- tal|
w: day * Let|love and peace un-|tram- meled run, O’er|all the * earth hold|
 A6 A2 | (Bc)(de) [GA]2 [FA]2 | (GA)(Bc) [Fd]2 [DA]2 | [DA]2 (GF) [EG]2 [CB]2 | %12
w: For un-|a * child * is born;|a * son * is given;|our fall- * en na-|
w: No earth-|sur- * rounds * His bed,|no * pil- * lared hall:|not where * to lay|
w: His wea-|and * right- * eous- ness;|the * good * of all,|less sons * of A-|
w: Till hu-|sion, * sin, * and wrongs,|bered * with * the past,|with her * ten thou-|
 ([DB]4 [DA]2) [Fd]2 | [FA]2 [DF]2 E2 [CF]2 | [EG]2 (FE) [DA]2 D2 | (EF)(AG) [B,F]2 [CE]2 | D6 |] %17
w: up, * And|make us heirs of||||
w: head, * Save|in the cat- tle||||
w: race, * The|ru- ined by the||||
w: tongues, * Shall|praise Thee “First and||||
V:2
 x2 | x8 | x8 | x8 | x8 | x8 | x8 | x2 F2 x4 | A6 A2 | G2 G2 x4 | E2 G2 x4 | x2 E2 x4 | x8 | %13
w: |||||||hem.|to us|To us|To raise|ture||
w: |||||||son.|ly pomp|His home|They had|His||
w: |||||||fame.|pons truth|The cause|The help-|dam’s||
w: |||||||sway,|man pas-|Are num-|And earth|sand||
 x4 E2 x2 | x2 C2 x D2 x | E2 E2 x4 | D6 |] %17
w: Heav’n.||||
w: stall.||||
w: fall.||||
w: Last.”||||
V:3
 [D,A,]2 | [A,,G,]3 [A,,G,] [A,,E,]2 [A,,A,]2 | [D,A,]2 [D,D]2 [D,A,]2 [B,,B,]2 | %3
 [E,B,]3 [E,B,] [F,A,]2 [E,G,]2 | ([D,G,]4 [D,F,]2) [B,,B,]2 | %5
 [^A,,F,]2 [B,,F,]2 [C,^A,]2 [D,B,]2 | [E,D]3 [E,C] [E,A,]2 [E,^A,]2 | %7
 [E,B,]2 [E,B,]2 [E,D]2 [E,D]2 | [A,C]6 [A,C]2 | [A,D]2 [A,D]2 [A,C]2 [A,C]2 | %10
 [A,B,]2 [A,B,]2 A,2 [F,A,]2 | [=F,A,]2 [E,D]2 [E,C]2 [A,,G,]2 | ([D,G,]4 [D,F,]2) [D,D]2 | %13
 [F,C]2 [B,D]2 [G,B,]2 [F,^A,]2 | [E,B,]2 (A,G,) [F,A,]2 [B,,B,]2 | %15
 [G,,B,]2 [E,,B,]2 [A,,G,]2 [A,,G,]2 | [D,,F,A,]6 |] %17
V:4
 x2 | x8 | x8 | x8 | x8 | x8 | x8 | x8 | x8 | x8 | x4 A,2 x2 | x8 | x8 | x8 | x2 A,2 x4 | x8 | %16
 x6 |] %17

